picto/alarm.svg

<svg class="color-immutable" width="24" height="24" viewBox="0 0 24 24" fill="none" xmlns="http://www.w3.org/2000/svg"><path d="M0 22.5V1.5C0 0.675 0.675 0 1.5 0H22.5C23.325 0 24 0.675 24 1.5V22.5C24 23.325 23.325 24 22.5 24H1.5C0.675 24 0 23.325 0 22.5Z" fill="#2D327D"/><path d="M18.15 16.184C18.144 15.736 17.885 15.348 17.509 15.159C17.5 15.154 17.49 15.15 17.48 15.145C16.844 14.829 15.765 14.074 15.765 12.587C15.765 10.789 15.637 9.837 15.307 9.193C14.941 8.478 14.315 8.153 13.283 8.141C13.298 7.874 13.307 7.295 12.945 6.877C12.789 6.695 12.498 6.479 12 6.479C11.502 6.479 11.211 6.695 11.054 6.876C10.692 7.294 10.701 7.873 10.716 8.14C9.68404 8.152 9.05804 8.478 8.69304 9.192C8.36304 9.836 8.23504 10.788 8.23504 12.586C8.23504 14.073 7.15604 14.828 6.52004 15.144C6.51004 15.15 6.50004 15.154 6.49104 15.159C6.11504 15.349 5.85604 15.736 5.85004 16.184V17.056H18.15V16.184ZM11.52 7.279C11.627 7.155 11.784 7.095 12 7.095C12.216 7.095 12.373 7.155 12.48 7.279C12.685 7.516 12.67 7.953 12.667 8.138H11.333C11.33 7.953 11.315 7.516 11.52 7.279Z" fill="white"/><path d="M10.769 17.364C10.737 17.476 10.719 17.595 10.719 17.718C10.719 18.426 11.293 18.999 12 18.999C12.707 18.999 13.281 18.425 13.281 17.718C13.281 17.595 13.263 17.477 13.231 17.364H10.769Z" fill="white"/><path d="M17.658 12.247C17.61 12.247 17.561 12.238 17.514 12.218C17.323 12.139 17.232 11.919 17.311 11.728C17.519 11.227 17.624 10.696 17.624 10.149C17.624 9.047 17.195 8.011 16.416 7.232C16.27 7.086 16.27 6.848 16.416 6.702C16.562 6.556 16.8 6.556 16.946 6.702C17.867 7.623 18.374 8.847 18.374 10.149C18.374 10.795 18.249 11.423 18.004 12.015C17.945 12.16 17.806 12.247 17.658 12.247Z" fill="white"/><path d="M19.738 13.108C19.69 13.108 19.641 13.099 19.595 13.079C19.404 13 19.313 12.78 19.392 12.589C19.713 11.815 19.876 10.994 19.876 10.149C19.876 8.446 19.213 6.845 18.009 5.641C17.863 5.495 17.863 5.257 18.009 5.111C18.155 4.965 18.393 4.965 18.539 5.111C19.885 6.457 20.626 8.246 20.626 10.149C20.626 11.093 20.444 12.011 20.085 12.876C20.024 13.021 19.885 13.108 19.738 13.108Z" fill="white"/><path d="M6.342 12.247C6.195 12.247 6.055 12.16 5.995 12.016C5.749 11.424 5.625 10.796 5.625 10.15C5.625 8.84801 6.132 7.62401 7.053 6.70301C7.199 6.55701 7.437 6.55701 7.583 6.70301C7.729 6.84901 7.729 7.08701 7.583 7.23301C6.804 8.01201 6.375 9.04801 6.375 10.15C6.375 10.697 6.48 11.228 6.688 11.729C6.767 11.92 6.677 12.14 6.485 12.219C6.438 12.238 6.389 12.247 6.342 12.247Z" fill="white"/><path d="M4.26202 13.108C4.11502 13.108 3.97502 13.021 3.91502 12.877C3.55602 12.012 3.37402 11.094 3.37402 10.15C3.37402 8.247 4.11502 6.458 5.46102 5.112C5.60702 4.966 5.84502 4.966 5.99102 5.112C6.13702 5.258 6.13702 5.496 5.99102 5.642C4.78702 6.846 4.12402 8.447 4.12402 10.15C4.12402 10.995 4.28702 11.816 4.60802 12.59C4.68802 12.781 4.59702 13 4.40602 13.08C4.35902 13.099 4.31002 13.108 4.26202 13.108Z" fill="white"/></svg>

<svg class="color-immutable" width="24" height="24" viewBox="0 0 24 24" fill="none" xmlns="http://www.w3.org/2000/svg"><g clip-path="url(#a)"><path d="M0 22.5v-21C0 .675.675 0 1.5 0h21c.825 0 1.5.675 1.5 1.5v21c0 .825-.675 1.5-1.5 1.5h-21C.675 24 0 23.325 0 22.5Z" fill="#2D327D"/><path d="M18.15 16.184a1.164 1.164 0 0 0-.641-1.025l-.029-.014c-.636-.316-1.715-1.071-1.715-2.558 0-1.798-.128-2.75-.458-3.394-.366-.715-.992-1.04-2.024-1.052.015-.267.024-.846-.338-1.264-.156-.182-.447-.398-.945-.398-.498 0-.789.216-.946.397-.362.418-.353.997-.338 1.264-1.032.012-1.658.338-2.023 1.052-.33.644-.458 1.596-.458 3.394 0 1.487-1.079 2.242-1.715 2.558l-.029.015c-.376.19-.635.577-.641 1.025v.872h12.3v-.872Zm-6.63-8.905c.107-.124.264-.184.48-.184.216 0 .373.06.48.184.205.237.19.674.187.859h-1.334c-.003-.185-.018-.622.187-.859ZM10.769 17.364a1.281 1.281 0 1 0 2.462 0h-2.462ZM17.658 12.247a.376.376 0 0 1-.347-.519 4.096 4.096 0 0 0 .313-1.579 4.098 4.098 0 0 0-1.208-2.917.375.375 0 0 1 .53-.53 4.843 4.843 0 0 1 1.428 3.447c0 .646-.125 1.274-.37 1.866a.372.372 0 0 1-.346.232ZM19.738 13.108a.376.376 0 0 1-.346-.519 6.337 6.337 0 0 0 .484-2.44 6.333 6.333 0 0 0-1.867-4.508.375.375 0 0 1 .53-.53 7.078 7.078 0 0 1 2.087 5.038 7.08 7.08 0 0 1-.541 2.727.376.376 0 0 1-.347.232ZM6.342 12.247a.376.376 0 0 1-.347-.231 4.838 4.838 0 0 1-.37-1.866c0-1.302.507-2.526 1.428-3.447a.375.375 0 0 1 .53.53 4.098 4.098 0 0 0-1.208 2.917c0 .547.105 1.078.313 1.579a.375.375 0 0 1-.346.518ZM4.262 13.108a.376.376 0 0 1-.347-.231 7.08 7.08 0 0 1-.541-2.727c0-1.903.741-3.692 2.087-5.038a.375.375 0 0 1 .53.53 6.333 6.333 0 0 0-1.867 4.508c0 .845.163 1.666.484 2.44a.375.375 0 0 1-.346.518Z" fill="#fff"/></g><defs><clipPath id="a"><path fill="#fff" d="M0 0h24v24H0z"/></clipPath></defs></svg>
